X:9194
T:Lafferty's
R:Reel
D:Four Men and a Dog: Shifting Gravel. Planxty. Kevin Burke & Micheal
D:O'Donnell.
Z:id:hn-reel-41
M:C|
L:1/8
Q:1/4=200
K:Edor
|:B2AF BFAF|EDEF EDB,D|B2AF BFAF|DFBA FE~E2|
B2AF BFAF|EDEF EDB,A,|B,E~E2 DEFA|dBAF FE~E2:|
|:eB~B2 egfe|fd~d2 Adfd|eB~B2 egfe|dBAF FE~E2|
eB~B2 egfe|d2fd Adfd|~B3d efge|dBAF FE~E2:|


